X: 14014
T: CHRIS BURT'S HORNPIPE
C: Bob McQuillen July'08
B: Bob's Note Book 14 #14
%R: hornpipe, reel
%D:2008
Z: 2020 John Chambers <jc:trillian.mit.edu>
M: C
L: 1/8
K: G
Bc \
| dgfg egdc | Bded BGcB | A2BG FAdc | Bdge d2Bc |
| dgfg egdc | Bdge dBGB | ABcd efga | g2G2 G2  :|
|: AG \
| F2FE FDGB | ABAF D2cB | AGAc BdcB | Ad^ce d2d=c |
| Bded BGBd | cdef gedc | Bdge fdfa | g2gf g2 :|
%%begintext align
%% Chris Burt is
%% a real nice guy. He's also a really lucky
%% guy because he's married to Wendy
%% Whittemore, one of the main stays of that
%% wonderful Seattle singing group, the S-Curves.
%% Chris is a contra-dancer, so here's a tune
%% for you to dance to, Chris - I hope you like it!
%%endtext

%%sep 1 1 500

%%sep 1 1 500

